X: 129
T: Cantantibus organis – Allegro moderato
C: Franciszek Walczyński
%%abc-version 2.0
%%abcx-abcm2ps-target-version 5.9.1 (29 Sep 2008)
%%abc-creator hum2abc beta
%%abcx-conversion-date 2021/10/04 07:38:41
%%abc-edited-by Kamil Watkowski
%%abcx-initial-encoding-date 2021-08-09
%%humdrum-veritas 3012006277
%%humdrum-veritas-data 3448561520
%%linebreak <none>
%%barnumbers 0
L: 1/4
M: 3/4
N: Derived from pl-kozmzk--mzk-m-346--031_walczynski-franciszek--cantantibus-organis-allegro-moderato.krn
%%staves {1 2}
V: 1 clef=treble
V: 2 clef=bass
K: F
[V:1] f2d & AB2 | 
[V:2] CDE & F,3- | 
[V:1] c2A & A2F | 
[V:2] F2C & F,3 | 
[V:1] c>dc/B/ & G3 | 
[V:2] C3- & E,3 | 
[V:1] !breath!A2A & F2G | 
[V:2] !breath!C2^C & F,2E, | 
[V:1] fed & AGF | 
[V:2] D=B,2 & D,G,^G, | 
[V:1] c2d & E2A | 
[V:2] C2A, & A,2F, | 
[V:1] e>dc/=B/ & ^G3 | 
[V:2] =B,2E/D/ & E,3 | 
[V:1] A3 & E3 | 
[V:2] C3 & A,3 | 
[V:1] _B>AG & E3 | 
[V:2] C3- & G,>A,_B, | 
[V:1] c2A & F3- | 
[V:2] C2D- & A,2D, | 
[V:1] B>AG & F3 | 
[V:2] D>CD & G,,>A,,B,, | 
[V:1] A3 & E3 | 
[V:2] ^C3 & A,,3 | 
[V:1] A=B/^c/d/e/ & z3 | 
[V:2] z3 & z3 | 
[V:1] fd=B & z3 | 
[V:2] z3 & z3 | 
[V:1] c3- & CD/E/F/G/ | 
[V:2] E,F,/G,/A,/_B,/ & C,3- | 
[V:1] c3- & BAG | 
[V:2] DCB, & C,3- | 
[V:1] c3 & FGE | 
[V:2] A,B,G, & C,3 | 
[V:1] !fermata!F3 & F3 ||  
[V:2] !fermata!A,3 & F,,3 ||  
[V:1] z3 & z3 | 
[V:2] G,=B,/A,/G,/F,/ & z3 | 
[V:1] z3 & z3 | 
[V:2] E,G,C & z3 | 
[V:1] G=B/A/G/F/ & z3 | 
[V:2] =B,G,A,/B,/ & z3 | 
[V:1] EGc & z3 | 
[V:2] C_B,2 & z3 | 
[V:1] cd/c/=B/d/ & F3 | 
[V:2] A,3 & z3 | 
[V:1] fed & _AGF | 
[V:2] =B,3 & D,E,/F,/G, | 
[V:1] c3- & E3- | 
[V:2] C3- & C,D,/C,/=B,,/C,/ | 
[V:1] c3 & EF_B ||  
[V:2] C3 & _B,A,G, ||  
[V:1]  [K:F] [M:3/4]d_e/d/A/B/ & ^F3 | 
[V:2]  [K:F] [M:3/4]A,2C & D,3 | 
[V:1] G>AB & G3 | 
[V:2] B,>CD & G,3 | 
[V:1] cd/c/G/B/ & G3 | 
[V:2] C3- & E,3 | 
[V:1] A>Bc & F3 | 
[V:2] C>B,A, & F,3 | 
[V:1] fg/f/e/f/ & F3- | 
[V:2] A,3 & _E,3 | 
[V:1] f>dB & F3- | 
[V:2] B,3 & D,3 | 
[V:1] ABA/G/ & F2E | 
[V:2] CDC/B,/ & C,3 | 
[V:1] F3 & C3 | 
[V:2] A,3 & F,,3 | 
[V:1] F3- & =B,D/C/B,/D/ | 
[V:2] _A,3 & F,,3- | 
[V:1] F3- & C_B,A, | 
[V:2] =A,G,F,/_E,/ & F,,3- | 
[V:1] F3- & B,C/B,/A,/G,/ | 
[V:2] D,_D,2 & F,,3- | 
[V:1] !fermata!F3 & A,3 |]  
[V:2] C,3 & !fermata!F,,3 |]  


